img/icons/eng.svg

<svg width="16" height="16" viewBox="0 0 16 16" fill="none" xmlns="http://www.w3.org/2000/svg">
<path d="M10.8226 10.0693L14.9118 13.472V12.0266C15.2658 11.4202 15.5426 10.7633 15.7285 10.0693H10.8226V10.0693Z" fill="#B3B0CF"/>
<path d="M2.12667 13.3335C2.11098 13.3464 2.09445 13.3577 2.07745 13.3676C3.06317 14.4534 4.34152 15.2681 5.78402 15.686V10.3181L2.12667 13.3335Z" fill="#1B00FF"/>
<path d="M10.216 0.313232V5.51451L13.9599 2.67404C12.9707 1.56795 11.6794 0.736576 10.216 0.313232Z" fill="#1B00FF"/>
<path d="M14.4237 3.24292L10.8812 5.93064H15.727C15.4628 4.9487 15.0154 4.03961 14.4237 3.24292Z" fill="#B3B0CF"/>
<path d="M15.8878 6.66433H9.84925C9.64668 6.66433 9.48243 6.50011 9.48243 6.29751V0.138294C9.04156 0.0552 8.58809 0.00804379 8.12497 0.000950039C7.5749 -0.00745621 7.03747 0.040075 6.51762 0.137513V6.29751C6.51762 6.50011 6.35337 6.66433 6.15081 6.66433H0.111122C0.0319347 7.13542 -0.00609653 7.62048 0.00087222 8.1157C0.00674722 8.53073 0.0446222 8.93814 0.111841 9.33567H6.15084C6.3534 9.33567 6.51765 9.49989 6.51765 9.70248V15.861C7.01228 15.9545 7.52237 16.0027 8.04359 15.9999C8.53515 15.9972 9.01587 15.9496 9.48243 15.8618V9.70248C9.48247 9.49989 9.64668 9.33567 9.84928 9.33567H15.8883C15.9575 8.92595 15.9956 8.5057 15.9997 8.07723C16.0042 7.59586 15.9657 7.12367 15.8878 6.66433Z" fill="#D93F3F"/>
<path d="M0.272095 10.0693C0.542157 11.0749 1.00422 12.0025 1.61581 12.8111C1.62916 12.7956 1.64369 12.7809 1.65997 12.7674L4.93247 10.0693H0.272095Z" fill="#B3B0CF"/>
<path d="M1.4851 3.35669C0.936689 4.12478 0.520908 4.99385 0.270752 5.93069H4.93219L1.4851 3.35669Z" fill="#B3B0CF"/>
<path d="M1.93823 2.77943L5.78404 5.65118V0.311523C4.26983 0.747211 2.93976 1.61755 1.93823 2.77943Z" fill="#1B00FF"/>
<path d="M10.216 10.5188V15.6868C10.6949 15.5485 11.1558 15.3675 11.5934 15.147H13.7139C14.2293 15.147 14.6687 14.8213 14.8377 14.3646L10.216 10.5188Z" fill="#1B00FF"/>
</svg>

<svg width="16" height="16" fill="none" xmlns="http://www.w3.org/2000/svg"><path d="M10.823 10.07l4.089 3.402v-1.445a7.99 7.99 0 00.816-1.958h-4.905z" fill="#B3B0CF"/><path d="M2.127 13.334a.373.373 0 01-.05.034 8.032 8.032 0 003.707 2.318v-5.368l-3.657 3.016zM10.216.313v5.202l3.744-2.841a8.019 8.019 0 00-3.744-2.36z" fill="#1B00FF"/><path d="M14.424 3.243L10.88 5.93h4.846a7.99 7.99 0 00-1.303-2.688z" fill="#B3B0CF"/><path d="M15.888 6.664H9.849a.367.367 0 01-.367-.366V.138a7.984 7.984 0 00-2.964 0v6.16a.367.367 0 01-.367.366H.11a8.065 8.065 0 000 2.672h6.04c.202 0 .367.164.367.366v6.159a7.978 7.978 0 002.964 0V9.703c0-.202.165-.366.367-.366h6.04a8.012 8.012 0 00-.001-2.672z" fill="#D93F3F"/><path d="M.272 10.07a7.973 7.973 0 001.344 2.741.37.37 0 01.044-.044l3.272-2.698H.272zm1.213-6.713A7.964 7.964 0 00.271 5.93h4.661L1.485 3.357z" fill="#B3B0CF"/><path d="M1.938 2.78l3.846 2.87V.311A8.004 8.004 0 001.938 2.78zm8.278 7.739v5.168c.479-.138.94-.32 1.377-.54h2.12a1.2 1.2 0 001.125-.782l-4.622-3.846z" fill="#1B00FF"/></svg>
